illustration-publish.svg

<svg width="316" height="206" viewBox="0 0 316 206" fill="none" xmlns="http://www.w3.org/2000/svg">
<rect x="16.5" y="0.5" width="299" height="204" stroke="#191A49"/>
<path fill-rule="evenodd" clip-rule="evenodd" d="M109.933 204.874C109.933 204.874 108.35 199.414 113.1 193.209C117.851 187.004 124.977 164.17 117.455 156.724C109.933 149.278 100.63 154.014 98.8483 146.682C97.0668 139.35 94.6914 120.487 83.4084 125.699C72.1254 130.911 66.7809 134.386 59.8527 128.926C52.9246 123.465 46.5902 132.401 43.2251 147.789C39.86 163.177 40.058 174.842 31.1504 177.076C22.2427 179.31 20.6592 186.011 20.6592 191.968C20.6592 197.925 13.1372 204.874 13.1372 204.874H109.933Z" fill="#D8E5E8"/>
<path fill-rule="evenodd" clip-rule="evenodd" d="M-1.14441e-05 204.874C-1.14441e-05 204.874 42.7103 94.7953 49.6194 103.552C56.5284 112.308 42.7103 204.874 42.7103 204.874H-1.14441e-05Z" fill="url(#paint0_linear)"/>
<path d="M45.667 114.792L20.0186 204.874" stroke="#EB9B9B"/>
<path fill-rule="evenodd" clip-rule="evenodd" d="M61.9316 204.874C61.9316 204.874 60.1189 153.578 53.5479 153.578C46.9768 153.578 28.7764 204.874 28.7764 204.874H61.9316Z" fill="url(#paint1_linear)"/>
<path d="M45.6667 204.874L51.9224 164.838" stroke="#D64848"/>
<path fill-rule="evenodd" clip-rule="evenodd" d="M132.33 42.3515C132.33 42.3515 133.821 37.7294 136.586 35.3631C139.351 32.9968 143.191 32.1626 148.485 31.2235C153.778 30.2844 153.071 34.5203 149.16 35.6885C145.248 36.8568 145.471 36.9621 145.471 36.9621C145.471 36.9621 149.629 38.1818 148.469 38.6483C147.31 39.1147 142.704 38.1143 142.704 38.1143C142.704 38.1143 142.617 37.9517 141.15 38.1143C139.684 38.277 136.735 45.7346 136.735 45.7346L132.33 42.3515Z" fill="#D8E5E8"/>
<path fill-rule="evenodd" clip-rule="evenodd" d="M88.5996 194.735C88.5996 194.735 87.7446 200.938 87.7446 203.153C87.7446 205.368 106.982 205.368 111.258 203.596C115.533 201.824 109.547 199.165 107.837 199.165C106.127 199.165 99.2873 197.111 99.2873 193.929C99.2873 190.747 93.7297 189.861 93.7297 189.861L88.5996 194.735Z" fill="white" stroke="#6FA0A8"/>
<path fill-rule="evenodd" clip-rule="evenodd" d="M45.9621 163.191C45.9621 163.191 39.7591 162.336 37.5438 162.336C35.3284 162.336 35.3284 181.574 37.1007 185.849C38.873 190.124 41.5314 184.139 41.5314 182.429C41.5314 180.719 43.5858 173.878 46.7678 173.878C49.9498 173.878 50.8359 168.321 50.8359 168.321L45.9621 163.191Z" fill="white"/>
<path fill-rule="evenodd" clip-rule="evenodd" d="M69.4144 114.965C66.3513 122.289 66.8477 133.394 66.8477 138.109C66.8477 142.823 64.9829 151.824 63.8209 156.967C60.7996 160.181 51.0199 162.539 46.7421 163.824C42.4643 165.11 45.2574 175.396 48.881 174.111C52.5045 172.825 74.3338 165.967 75.831 161.681C77.3283 157.396 82.0126 141.966 83.1033 138.109C84.194 134.251 85.2422 121.394 85.2422 121.394L80.1088 110.679C80.1088 110.679 72.4774 107.64 69.4144 114.965Z" fill="#6FA0A8" stroke="#447F8D"/>
<path fill-rule="evenodd" clip-rule="evenodd" d="M68.0008 103.806L62.6564 106.091C62.6564 106.091 54.535 115.091 50.3608 119.872C46.1867 124.653 50.9143 126.516 54.4801 123.272C58.0458 120.027 58.0168 120.317 58.0168 120.317C58.0168 120.317 56.7239 125.264 57.9029 124.375C59.0819 123.486 60.8696 118.221 60.8696 118.221C60.8696 118.221 61.5749 116.744 62.6564 114.847C63.7379 112.949 64.1151 107.298 64.1151 107.298L68.0008 103.806Z" fill="#D8E5E8"/>
<path fill-rule="evenodd" clip-rule="evenodd" d="M85.0788 58.491C81.0126 61.6189 63.6762 83.5962 63.2518 85.4824C62.8275 87.3686 58.1596 108.26 57.7353 110.005C57.3109 111.749 64.5249 115.205 65.3736 112.605C66.2223 110.005 71.2998 90.5921 72.5875 89.3089C73.8751 88.0257 83.6205 76.6754 85.3179 74.5367C87.0153 72.3981 88.8323 54.7376 85.0788 58.491Z" fill="#101136"/>
<path fill-rule="evenodd" clip-rule="evenodd" d="M83.5284 106.66L90.3253 107.582C90.3253 107.582 101.795 112.461 101.795 115.565C101.795 118.67 108.167 157.767 107.742 163.022C107.318 168.277 99.671 190.913 99.671 193.599C99.671 196.286 86.9268 197.565 86.9268 193.599C86.9268 189.633 94.5733 166.126 94.9981 162.135C95.4229 158.143 83.5284 132.419 83.5284 131.088C83.5284 129.758 76.3066 127.54 74.6074 125.766" fill="#6FA0A8"/>
<path d="M83.5284 106.66L90.3253 107.582C90.3253 107.582 101.795 112.461 101.795 115.565C101.795 118.67 108.167 157.767 107.742 163.022C107.318 168.277 99.671 190.913 99.671 193.599C99.671 196.286 86.9268 197.565 86.9268 193.599C86.9268 189.633 94.5733 166.126 94.9981 162.135C95.4229 158.143 83.5284 132.419 83.5284 131.088C83.5284 129.758 76.3066 127.54 74.6074 125.766" stroke="#447F8D"/>
<path fill-rule="evenodd" clip-rule="evenodd" d="M95.064 49.476C94.7631 52.1978 92.0025 56.6009 89.6465 57.3445C87.2904 58.0882 92.992 64.791 96.5891 66.5334C100.186 68.2758 105.046 64.9037 105.046 64.9037C105.046 64.9037 103.198 58.1686 104.916 52.9175C106.633 47.6664 107.326 50.9515 109.435 49.3843C111.543 47.8171 112.479 35.1982 111.413 31.4936C110.347 27.7889 105.518 33.7605 105.518 33.7605L101.373 43.8329C101.373 43.8329 95.3649 46.7542 95.064 49.476Z" fill="#D8E5E8"/>
<path fill-rule="evenodd" clip-rule="evenodd" d="M110.428 28.5986C111.275 31.1509 109.774 41.2117 109.115 40.3495C108.456 39.4872 107.138 37.7628 106.857 40.2809C106.576 42.7989 106.18 43.6291 105.193 45.7046C104.206 47.7801 96.9582 53.5322 90.9134 51.1661C84.6041 48.6964 84.7885 35.1758 87.0479 30.8359C89.3072 26.4959 95.7472 21.4149 102.757 22.8912C109.767 24.3675 109.58 26.0462 110.428 28.5986Z" fill="#A34040"/>
<path fill-rule="evenodd" clip-rule="evenodd" d="M106.261 63.4632C110.252 64.525 111.236 79.5471 109.693 84.5963C108.149 89.6455 104.076 98.1378 102.75 102.913C101.425 107.689 104.129 117.563 99.2484 120.072C94.3676 122.58 85.0186 116.544 79.2615 113.123C73.5044 109.703 69.1623 113.932 73.8043 106.998C78.4463 100.063 80.5249 84.1382 80.5707 79.0776C80.6165 74.0169 81.0771 70.7337 82.7311 65.4485C84.385 60.1634 87.3603 56.444 91.1245 56.2121C93.9745 58.7465 102.556 62.4154 106.261 63.4632Z" fill="#191A49"/>
<path fill-rule="evenodd" clip-rule="evenodd" d="M94.7341 77.2823C93.7814 82.9757 99.2785 87.2457 105.214 82.5012C106.835 81.2054 109.157 86.9844 110.923 83.7874C115.092 76.238 125.9 67.8453 127.977 64.9139C130.836 60.8812 138.676 44.8231 140.105 41.1334C141.534 37.4437 134.341 42.4435 133.796 40.0713C133.251 37.699 122.363 55.4579 121.41 56.8812C120.458 58.3045 95.6868 71.589 94.7341 77.2823Z" fill="#191A49"/>
<path fill-rule="evenodd" clip-rule="evenodd" d="M77.1455 200.211C77.1455 200.211 85.3059 186.107 87.9592 186.107C90.6124 186.107 87.9592 202.855 87.9592 202.855L77.1455 200.211Z" fill="#972C2C"/>
<path d="M86.8739 190.347L81.5674 199.991" stroke="#D47575"/>
<path fill-rule="evenodd" clip-rule="evenodd" d="M73.5341 205.5C73.5341 205.5 70.1431 188.752 71.8386 188.752C73.5341 188.752 85.9894 205.5 85.9894 205.5H73.5341Z" fill="#A34040"/>
<path fill-rule="evenodd" clip-rule="evenodd" d="M79.7979 205.5C79.7979 205.5 91.7985 188.752 94.8331 190.515C97.8678 192.278 93.7384 205.5 93.7384 205.5H79.7979Z" fill="#A34040"/>
<path d="M93.7387 194.481L86.8735 205.5" stroke="#D47575"/>
<path d="M73.5337 194.481L79.7981 205.5" stroke="#D47575"/>
<path fill-rule="evenodd" clip-rule="evenodd" d="M129.229 180.42C129.229 180.42 133.209 173.596 134.503 173.596C135.798 173.596 134.503 181.7 134.503 181.7L129.229 180.42Z" fill="#972C2C"/>
<path d="M133.975 175.648L131.386 180.314" stroke="#D47575"/>
<path fill-rule="evenodd" clip-rule="evenodd" d="M127.467 182.446C127.467 182.446 125.813 174.876 126.64 174.876C127.467 174.876 133.543 182.98 133.543 182.98L127.467 182.446Z" fill="#A34040"/>
<path fill-rule="evenodd" clip-rule="evenodd" d="M130.524 182.98C130.524 182.98 136.378 174.876 137.858 175.729C139.339 176.582 137 182.98 137 182.98H130.524Z" fill="#A34040"/>
<path d="M137.323 177.648L133.974 182.98" stroke="#D47575"/>
<path d="M127.468 177.648L130.524 182.98" stroke="#D47575"/>
<path d="M125.739 182.979C125.739 182.979 126.605 181.934 128.995 182.559C131.386 183.185 135.062 183.605 137.625 182.354C140.188 181.103 142.004 182.354 142.004 182.354" stroke="#D47575"/>
<path fill-rule="evenodd" clip-rule="evenodd" d="M242.036 198.278C246.756 199.188 249.898 182.979 243.908 182.979C237.919 182.979 232.452 190.433 229.332 187.385C226.212 184.338 218.95 182.12 218.95 186.239C218.95 190.357 222.07 198.278 222.07 198.278C222.07 198.278 237.317 197.367 242.036 198.278Z" fill="#E19090"/>
<path fill-rule="evenodd" clip-rule="evenodd" d="M237.317 194.239C237.317 194.239 231.545 184.23 229.669 184.23C227.792 184.23 229.669 196.116 229.669 196.116L237.317 194.239Z" fill="#972C2C"/>
<path d="M230.436 187.239L234.189 194.083" stroke="#D47575"/>
<path fill-rule="evenodd" clip-rule="evenodd" d="M239.871 197.993C239.871 197.993 242.27 186.107 241.07 186.107C239.871 186.107 231.461 197.367 231.461 197.367L239.871 197.993Z" fill="#A34040"/>
<path fill-rule="evenodd" clip-rule="evenodd" d="M235.44 197.367C235.44 197.367 226.952 186.107 224.806 187.358C222.659 188.609 225.58 197.367 225.58 197.367H235.44Z" fill="#A34040"/>
<path d="M225.58 190.173L230.21 197.289" stroke="#D47575"/>
<path d="M239.871 190.173L235.84 197.367" stroke="#D47575"/>
<path d="M222.078 198.071C222.078 198.071 228.333 197.133 233.963 197.446C239.594 197.758 245.224 199.322 248.352 198.071" stroke="#E19090" stroke-linecap="round"/>
<path d="M251.472 46.1012L303.4 31.2308L256.901 25.3298L251.472 46.1012Z" fill="#EFF0FA"/>
<path d="M251 14L303.164 31.2308L257.137 25.3298L251 14Z" fill="#EFF0FA"/>
<path d="M263.981 48.6977L262.57 42.8861L302.928 31.2309L263.981 48.6977Z" fill="#AAAEE1"/>
<path d="M257.037 25.3298L302.356 31.2308" stroke="#8A92D9" stroke-linecap="round"/>
<path d="M156 39.4538C180.722 62.085 200.5 54.3427 209.939 44.8138C219.379 35.2849 172.182 32.9026 187.914 56.725C203.646 80.5474 232.864 69.8273 245 58.5117" stroke="#8A92D9" stroke-linecap="round" stroke-linejoin="round" stroke-dasharray="4 4"/>
<defs>
<linearGradient id="paint0_linear" x1="25.9612" y1="102.906" x2="25.9612" y2="204.874" gradientUnits="userSpaceOnUse">
<stop stop-color="#B84949"/>
<stop offset="1" stop-color="#9771A4"/>
</linearGradient>
<linearGradient id="paint1_linear" x1="58.1782" y1="204.874" x2="45.6668" y2="163.274" gradientUnits="userSpaceOnUse">
<stop stop-color="#B84949"/>
<stop offset="1" stop-color="#9771A4"/>
</linearGradient>
</defs>
</svg>

<svg width="316" height="206" fill="none" xmlns="http://www.w3.org/2000/svg"><path fill-rule="evenodd" clip-rule="evenodd" d="M109.933 204.874s-1.583-5.46 3.167-11.665c4.751-6.205 11.877-29.039 4.355-36.485-7.522-7.446-16.825-2.71-18.607-10.042-1.781-7.332-4.157-26.195-15.44-20.983s-16.627 8.687-23.555 3.227c-6.928-5.461-13.263 3.475-16.628 18.863s-3.167 27.053-12.075 29.287c-8.907 2.234-10.49 8.935-10.49 14.892 0 5.957-7.523 12.906-7.523 12.906h96.796Z" fill="#D8E5E8"/><path fill-rule="evenodd" clip-rule="evenodd" d="M0 204.874S42.71 94.795 49.62 103.552c6.908 8.756-6.91 101.322-6.91 101.322H0Z" fill="url(#a)"/><path d="m45.667 114.792-25.648 90.082" stroke="#EB9B9B"/><path fill-rule="evenodd" clip-rule="evenodd" d="M61.932 204.874s-1.813-51.296-8.384-51.296c-6.571 0-24.772 51.296-24.772 51.296h33.156Z" fill="url(#b)"/><path d="m45.667 204.874 6.255-40.036" stroke="#D64848"/><path fill-rule="evenodd" clip-rule="evenodd" d="M132.33 42.352s1.491-4.623 4.256-6.989c2.765-2.366 6.605-3.2 11.899-4.14 5.293-.939 4.586 3.297.675 4.465-3.912 1.169-3.689 1.274-3.689 1.274s4.158 1.22 2.998 1.686c-1.159.467-5.765-.534-5.765-.534s-.087-.162-1.554 0c-1.466.163-4.415 7.62-4.415 7.62l-4.405-3.383v.001Z" fill="#D8E5E8"/><path fill-rule="evenodd" clip-rule="evenodd" d="M88.6 194.735s-.855 6.203-.855 8.418c0 2.215 19.237 2.215 23.513.443 4.275-1.772-1.711-4.431-3.421-4.431-1.71 0-8.55-2.054-8.55-5.236s-5.557-4.068-5.557-4.068l-5.13 4.874Z" fill="#fff" stroke="#6FA0A8"/><path fill-rule="evenodd" clip-rule="evenodd" d="M45.962 163.191s-6.203-.855-8.418-.855c-2.216 0-2.216 19.238-.443 23.513 1.772 4.275 4.43-1.71 4.43-3.42s2.055-8.551 5.237-8.551 4.068-5.557 4.068-5.557l-4.874-5.13Z" fill="#fff"/><path fill-rule="evenodd" clip-rule="evenodd" d="M69.414 114.965c-3.063 7.324-2.566 18.429-2.566 23.144 0 4.714-1.865 13.715-3.027 18.858-3.021 3.214-12.801 5.572-17.079 6.857-4.278 1.286-1.485 11.572 2.139 10.287 3.623-1.286 25.453-8.144 26.95-12.43 1.497-4.285 6.182-19.715 7.272-23.572 1.091-3.858 2.14-16.715 2.14-16.715l-5.134-10.715s-7.632-3.039-10.695 4.286Z" fill="#6FA0A8" stroke="#447F8D"/><path fill-rule="evenodd" clip-rule="evenodd" d="m68 103.806-5.344 2.285s-8.121 9-12.295 13.781c-4.174 4.781.553 6.644 4.12 3.4 3.565-3.245 3.536-2.955 3.536-2.955s-1.293 4.947-.114 4.058c1.179-.889 2.967-6.154 2.967-6.154s.705-1.477 1.786-3.374c1.082-1.898 1.46-7.549 1.46-7.549L68 103.806Z" fill="#D8E5E8"/><path fill-rule="evenodd" clip-rule="evenodd" d="M85.079 58.491c-4.066 3.128-21.403 25.105-21.827 26.991-.425 1.887-5.092 22.778-5.517 24.523-.424 1.744 6.79 5.2 7.639 2.6.848-2.6 5.926-22.013 7.214-23.296 1.287-1.283 11.033-12.634 12.73-14.772 1.697-2.139 3.514-19.8-.24-16.046h.001Z" fill="#101136"/><path fill-rule="evenodd" clip-rule="evenodd" d="m83.528 106.66 6.797.922s11.47 4.879 11.47 7.983c0 3.105 6.372 42.202 5.947 47.457-.424 5.255-8.071 27.891-8.071 30.577 0 2.687-12.744 3.966-12.744 0s7.646-27.473 8.071-31.464c.425-3.992-11.47-29.716-11.47-31.047 0-1.33-7.221-3.548-8.92-5.322" fill="#6FA0A8"/><path d="m83.528 106.66 6.797.922s11.47 4.879 11.47 7.983c0 3.105 6.372 42.202 5.947 47.457-.424 5.255-8.071 27.891-8.071 30.577 0 2.687-12.744 3.966-12.744 0s7.646-27.473 8.071-31.464c.425-3.992-11.47-29.716-11.47-31.047 0-1.33-7.221-3.548-8.92-5.322" stroke="#447F8D"/><path fill-rule="evenodd" clip-rule="evenodd" d="M95.064 49.476c-.3 2.722-3.061 7.125-5.417 7.868-2.357.744 3.345 7.447 6.942 9.19 3.597 1.742 8.457-1.63 8.457-1.63s-1.848-6.735-.13-11.986c1.717-5.252 2.41-1.966 4.519-3.534 2.108-1.567 3.044-14.186 1.978-17.89-1.066-3.705-5.895 2.267-5.895 2.267l-4.145 10.072s-6.008 2.921-6.309 5.643Z" fill="#D8E5E8"/><path fill-rule="evenodd" clip-rule="evenodd" d="M110.428 28.599c.847 2.552-.654 12.613-1.313 11.75-.659-.862-1.977-2.586-2.258-.068-.281 2.518-.677 3.348-1.664 5.424-.987 2.075-8.235 7.827-14.28 5.461-6.309-2.47-6.124-15.99-3.865-20.33 2.26-4.34 8.7-9.421 15.709-7.945 7.01 1.477 6.823 3.155 7.671 5.708Z" fill="#A34040"/><path fill-rule="evenodd" clip-rule="evenodd" d="M106.261 63.463c3.991 1.062 4.975 16.084 3.432 21.133-1.544 5.05-5.617 13.542-6.943 18.317-1.325 4.776 1.379 14.65-3.502 17.159-4.88 2.508-14.23-3.528-19.987-6.949-5.757-3.42-10.099.809-5.457-6.125 4.642-6.935 6.72-22.86 6.767-27.92.046-5.061.506-8.344 2.16-13.63 1.654-5.285 4.63-9.004 8.394-9.236 2.85 2.534 11.431 6.203 15.136 7.251Z" fill="#191A49"/><path fill-rule="evenodd" clip-rule="evenodd" d="M94.734 77.282c-.953 5.694 4.544 9.964 10.48 5.22 1.621-1.297 3.943 4.482 5.709 1.285 4.169-7.549 14.977-15.942 17.054-18.873 2.859-4.033 10.699-20.09 12.128-23.78 1.429-3.69-5.764 1.31-6.309-1.063-.545-2.372-11.433 15.387-12.386 16.81-.952 1.423-25.723 14.708-26.676 20.401Z" fill="#191A49"/><path fill-rule="evenodd" clip-rule="evenodd" d="M77.145 200.211s8.16-14.104 10.814-14.104c2.653 0 0 16.748 0 16.748l-10.814-2.644Z" fill="#972C2C"/><path d="m86.874 190.347-5.307 9.644" stroke="#D47575"/><path fill-rule="evenodd" clip-rule="evenodd" d="M73.534 205.5s-3.39-16.748-1.695-16.748 14.15 16.748 14.15 16.748H73.534Z" fill="#A34040"/><path fill-rule="evenodd" clip-rule="evenodd" d="M79.798 205.5s12-16.748 15.035-14.985c3.035 1.763-1.095 14.985-1.095 14.985h-13.94Z" fill="#A34040"/><path d="m73.534 194.481 6.264 11.019m13.941-11.019L86.874 205.5l6.865-11.019Z" stroke="#D47575"/><path fill-rule="evenodd" clip-rule="evenodd" d="M129.229 180.42s3.98-6.824 5.274-6.824c1.295 0 0 8.104 0 8.104l-5.274-1.28Z" fill="#972C2C"/><path d="m133.975 175.648-2.589 4.666" stroke="#D47575"/><path fill-rule="evenodd" clip-rule="evenodd" d="M127.467 182.446s-1.654-7.57-.827-7.57 6.903 8.104 6.903 8.104l-6.076-.534Z" fill="#A34040"/><path fill-rule="evenodd" clip-rule="evenodd" d="M130.524 182.98s5.854-8.104 7.334-7.251c1.481.853-.858 7.251-.858 7.251h-6.476Z" fill="#A34040"/><path d="M125.739 182.979s.866-1.045 3.256-.42c2.391.626 6.067 1.046 8.63-.205 2.563-1.251 4.379 0 4.379 0m-4.681-4.706-3.349 5.332 3.349-5.332Zm-9.855 0 3.056 5.332-3.056-5.332Z" stroke="#D47575"/><path fill-rule="evenodd" clip-rule="evenodd" d="M242.036 198.278c4.72.91 7.862-15.299 1.872-15.299-5.989 0-11.456 7.454-14.576 4.406-3.12-3.047-10.382-5.265-10.382-1.146 0 4.118 3.12 12.039 3.12 12.039s15.247-.911 19.966 0Z" fill="#E19090"/><path fill-rule="evenodd" clip-rule="evenodd" d="M237.317 194.239s-5.772-10.009-7.648-10.009c-1.877 0 0 11.886 0 11.886l7.648-1.877Z" fill="#972C2C"/><path d="m230.436 187.239 3.753 6.844" stroke="#D47575"/><path fill-rule="evenodd" clip-rule="evenodd" d="M239.871 197.993s2.399-11.886 1.199-11.886c-1.199 0-9.609 11.26-9.609 11.26l8.41.626Z" fill="#A34040"/><path fill-rule="evenodd" clip-rule="evenodd" d="M235.44 197.367s-8.488-11.26-10.634-10.009c-2.147 1.251.774 10.009.774 10.009h9.86Z" fill="#A34040"/><path d="m239.871 190.173-4.031 7.194m-10.26-7.194 4.63 7.116-4.63-7.116Z" stroke="#D47575"/><path d="M222.078 198.071s6.255-.938 11.885-.625c5.631.312 11.261 1.876 14.389.625" stroke="#E19090" stroke-linecap="round"/><path d="m251.472 46.101 51.928-14.87-46.499-5.901-5.429 20.771Z" fill="#EFF0FA"/><path d="m251 14 52.164 17.23-46.027-5.9L251 14Z" fill="#EFF0FA"/><path d="m263.981 48.698-1.411-5.812 40.358-11.655-38.947 17.467Z" fill="#AAAEE1"/><path d="m257.037 25.33 45.319 5.9" stroke="#8A92D9" stroke-linecap="round"/><path d="M156 39.454c24.722 22.631 44.5 14.889 53.939 5.36 9.44-9.53-37.757-11.911-22.025 11.911s44.95 13.102 57.086 1.787" stroke="#8A92D9" stroke-linecap="round" stroke-linejoin="round" stroke-dasharray="4 4"/><defs><linearGradient id="a" x1="25.961" y1="102.906" x2="25.961" y2="204.874" gradientUnits="userSpaceOnUse"><stop stop-color="#B84949"/><stop offset="1" stop-color="#9771A4"/></linearGradient><linearGradient id="b" x1="58.178" y1="204.874" x2="45.667" y2="163.274" gradientUnits="userSpaceOnUse"><stop stop-color="#B84949"/><stop offset="1" stop-color="#9771A4"/></linearGradient></defs></svg>
